icon/pk/table-file.svg

<svg viewBox="0 0 48 48" fill="none" xmlns="http://www.w3.org/2000/svg" height="1em" width="1em">
  <path d="M42 6H6C4.89543 6 4 6.89543 4 8V40C4 41.1046 4.89543 42 6 42H42C43.1046 42 44 41.1046 44 40V8C44 6.89543 43.1046 6 42 6Z" fill="#2F88FF" stroke="black" stroke-width="4" stroke-linejoin="round"/>
  <path d="M4 18H44" stroke="white" stroke-width="4" stroke-linecap="round" stroke-linejoin="round"/>
  <path d="M17.5 18V42" stroke="white" stroke-width="4" stroke-linecap="round" stroke-linejoin="round"/>
  <path d="M30.5 18V42" stroke="white" stroke-width="4" stroke-linecap="round" stroke-linejoin="round"/>
  <path d="M4 30H44" stroke="white" stroke-width="4" stroke-linecap="round" stroke-linejoin="round"/>
  <path d="M44 8V40C44 41.1046 43.1046 42 42 42H6C4.89543 42 4 41.1046 4 40V8" stroke="black" stroke-width="4" stroke-linecap="round" stroke-linejoin="round"/>
</svg>

<svg width="48" height="48" fill="none" xmlns="http://www.w3.org/2000/svg"><path d="M42 6H6a2 2 0 0 0-2 2v32a2 2 0 0 0 2 2h36a2 2 0 0 0 2-2V8a2 2 0 0 0-2-2Z" fill="#2F88FF" stroke="#000" stroke-width="4" stroke-linejoin="round"/><path d="M4 18h40M17.5 18v24M30.5 18v24M4 30h40" stroke="#fff" stroke-width="4" stroke-linecap="round" stroke-linejoin="round"/><path d="M44 8v32a2 2 0 0 1-2 2H6a2 2 0 0 1-2-2V8" stroke="#000" stroke-width="4" stroke-linecap="round" stroke-linejoin="round"/></svg>
